src/assets/filled/Avalanche.svg

<?xml version="1.0" encoding="UTF-8"?>
<svg width="24" height="24" viewBox="0 0 24 24" xmlns="http://www.w3.org/2000/svg">
 <path d="m12 2c-5.52 0-10 4.48-10 10s4.48 10 10 10 10-4.48 10-10-4.48-10-10-10zm-1.28 13.41c-0.33 0.53-0.91001 0.85-1.54 0.85h-2.74c-0.35 0-0.57001-0.38-0.39001-0.68l5.61-9.61c0.16-0.28 0.56-0.3 0.75-0.04l1.56 2.09c0.45 0.6 0.48 1.41 0.09 2.05l-3.34 5.34zm6.83 0.85h-3.84c-0.35 0-0.57-0.38-0.39-0.69l1.92-3.2c0.18-0.29 0.6-0.29 0.78 0l1.92 3.2c0.18 0.3-0.04 0.69-0.39 0.69z"/>
</svg>

<svg width="24" height="24" viewBox="0 0 24 24"  xmlns="http://www.w3.org/2000/svg">
<path d="M12 2C6.48 2 2 6.48 2 12C2 17.52 6.48 22 12 22C17.52 22 22 17.52 22 12C22 6.48 17.52 2 12 2ZM10.72 15.41C10.39 15.94 9.80999 16.26 9.17999 16.26H6.44C6.09 16.26 5.86999 15.88 6.04999 15.58L11.66 5.97C11.82 5.69 12.22 5.67 12.41 5.93L13.97 8.02C14.42 8.62 14.45 9.43 14.06 10.07L10.72 15.41ZM17.55 16.26H13.71C13.36 16.26 13.14 15.88 13.32 15.57L15.24 12.37C15.42 12.08 15.84 12.08 16.02 12.37L17.94 15.57C18.12 15.87 17.9 16.26 17.55 16.26Z" />
</svg>
